symbols/web/person_remove/materialsymbolsoutlined/person_remove_wght600gradN25_40px.svg

<svg xmlns="http://www.w3.org/2000/svg" height="40" width="40"><path d="M27.125 17v-3.25h10.208V17Zm-12.042 2.667q-3 0-4.958-1.959-1.958-1.958-1.958-4.958t1.958-4.958q1.958-1.959 4.958-1.959t4.959 1.959Q22 9.75 22 12.75t-1.958 4.958q-1.959 1.959-4.959 1.959ZM1.333 33.958V29.25q0-1.583.813-2.875.812-1.292 2.271-2 3-1.333 5.521-1.937 2.52-.605 5.145-.605 2.667 0 5.188.605 2.521.604 5.437 1.937 1.459.667 2.292 1.958.833 1.292.833 2.917v4.708Zm3.542-3.541h20.417v-1.042q0-.583-.334-1.104-.333-.521-.875-.771-2.583-1.208-4.625-1.667-2.041-.458-4.375-.458-2.333 0-4.395.458-2.063.459-4.605 1.667-.583.25-.895.771-.313.521-.313 1.104Zm10.208-14.292q1.459 0 2.417-.958.958-.959.958-2.417 0-1.458-.958-2.417-.958-.958-2.417-.958-1.458 0-2.416.958-.959.959-.959 2.417 0 1.458.959 2.417.958.958 2.416.958Zm0-3.375Zm0 12.625Z"/></svg>

<svg xmlns="http://www.w3.org/2000/svg" height="40" width="40"><path d="M27.125 17V13.75H37.333V17ZM15.083 19.667Q12.083 19.667 10.125 17.708Q8.167 15.75 8.167 12.75Q8.167 9.75 10.125 7.792Q12.083 5.833 15.083 5.833Q18.083 5.833 20.042 7.792Q22 9.75 22 12.75Q22 15.75 20.042 17.708Q18.083 19.667 15.083 19.667ZM1.333 33.958V29.25Q1.333 27.667 2.146 26.375Q2.958 25.083 4.417 24.375Q7.417 23.042 9.938 22.438Q12.458 21.833 15.083 21.833Q17.75 21.833 20.271 22.438Q22.792 23.042 25.708 24.375Q27.167 25.042 28 26.333Q28.833 27.625 28.833 29.25V33.958ZM4.875 30.417H25.292V29.375Q25.292 28.792 24.958 28.271Q24.625 27.75 24.083 27.5Q21.5 26.292 19.458 25.833Q17.417 25.375 15.083 25.375Q12.75 25.375 10.688 25.833Q8.625 26.292 6.083 27.5Q5.5 27.75 5.188 28.271Q4.875 28.792 4.875 29.375ZM15.083 16.125Q16.542 16.125 17.5 15.167Q18.458 14.208 18.458 12.75Q18.458 11.292 17.5 10.333Q16.542 9.375 15.083 9.375Q13.625 9.375 12.667 10.333Q11.708 11.292 11.708 12.75Q11.708 14.208 12.667 15.167Q13.625 16.125 15.083 16.125ZM15.083 12.75Q15.083 12.75 15.083 12.75Q15.083 12.75 15.083 12.75Q15.083 12.75 15.083 12.75Q15.083 12.75 15.083 12.75Q15.083 12.75 15.083 12.75Q15.083 12.75 15.083 12.75Q15.083 12.75 15.083 12.75Q15.083 12.75 15.083 12.75ZM15.083 25.375Q15.083 25.375 15.083 25.375Q15.083 25.375 15.083 25.375Q15.083 25.375 15.083 25.375Q15.083 25.375 15.083 25.375Q15.083 25.375 15.083 25.375Q15.083 25.375 15.083 25.375Q15.083 25.375 15.083 25.375Q15.083 25.375 15.083 25.375Z"/></svg>
